X:1
T:Polska efter Lissmyr Erik
R:Polska
Z:Anton Teljebck 2007-12-06
S:Efter Lissmyr Erik Persson
S:Knd genom Kalle Almlf
O:Vstrafors, Malung, Dalarna
M:3/4
L:1/8
K:Dm
|:A>a a<a g>a | f>f e<d e>(f | e)>(^c A)>c d>e | (3fdf e>^c A2 | 
A>a a<a g>a | f>f e<d e>(f | e)>(^c A)>c d>e |(3fe^c d4 :|
|:(d>^c) (A>c) d>e | f>(f f)ed e>f | e>^c (A>c) d>e | (3fdf e>^c A2 | 
(d>^c) (A>c) d>e | f>(f f)ed e>f | e>^c (A>c) d>e |(3fe^c d4 :|
